X:51
T:Kesh Jig
R:jig
C:Traditional
M:6/8
K:G
GG/G/G GAB | (A/G/A)A ABd | ed/d/d gd/d/d | edB dBA |
GF/G/G GAB | (A/G/A)A ABd | ed/d/d gdB |[1 AGF G2D :|[2 AGF G3 |
|: BB/B/d dBd | (e/g/e)e dBG | BA/B/B dBG| (A/B/A)A AGA |
BA/B/B dBd | (e/g/e)e dBd | gf/g/g aga | bgf g3:|

%%newpage

%%scale .75
%%staffsep 46

